Apricity Icons/16/panel/signal-unread-1.svg

<svg xmlns="http://www.w3.org/2000/svg" width="16" height="16" version="1.1">
 <defs>
  <style id="current-color-scheme" type="text/css">
   .ColorScheme-Text { color:#dfdfdf; } .ColorScheme-Highlight { color:#4285f4; }
  </style>
 </defs>
 <path style="fill:currentColor" class="ColorScheme-Text" d="M 8 1 A 7 6.5 0 0 0 1 7.5 A 7 6.5 0 0 0 2.3300781 11.291016 A 2.5 2.5 0 0 1 3.5 11 A 2.5 2.5 0 0 1 6 13.5 A 2.5 2.5 0 0 1 5.9902344 13.714844 A 7 6.5 0 0 0 8 14 A 7 6.5 0 0 0 15 7.5 A 7 6.5 0 0 0 8 1 z M 7.9804688 3 L 8 3 L 8.0195312 3 L 8.4882812 3.0195312 L 8.5058594 3.0214844 L 8.5253906 3.0253906 L 8.9824219 3.0859375 L 9.0097656 3.0917969 L 9.0351562 3.0996094 L 9.1660156 3.1347656 L 8.9414062 3.9238281 L 8.8457031 3.8964844 L 8.4277344 3.8398438 L 8 3.8203125 L 7.5703125 3.8398438 L 7.4550781 3.8535156 L 7.3417969 3.0429688 L 7.4726562 3.0253906 L 7.4941406 3.0214844 L 7.5097656 3.0195312 L 7.9804688 3 z M 6.4726562 3.2363281 L 6.6992188 4.0214844 L 6.3652344 4.1171875 L 5.6542969 4.4609375 L 5.3554688 4.6816406 L 4.8554688 4.0253906 L 5.1875 3.78125 L 5.2167969 3.7578125 L 5.2519531 3.7421875 L 6.03125 3.3632812 L 6.0664062 3.3476562 L 6.1015625 3.3378906 L 6.4726562 3.2363281 z M 10.035156 3.3964844 L 10.748047 3.7421875 L 10.78125 3.7578125 L 10.8125 3.78125 L 11.492188 4.28125 L 11.521484 4.3046875 L 11.548828 4.3339844 L 11.566406 4.3515625 L 11.162109 4.7109375 L 10.992188 4.9375 L 10.345703 4.4609375 L 9.6660156 4.1308594 L 10.035156 3.3964844 z M 4.1796875 4.625 L 4.796875 5.1757812 L 4.5253906 5.4707031 L 4.328125 5.7636719 L 4.1542969 6.0859375 L 4.0097656 6.4355469 L 3.2363281 6.1289062 L 3.390625 5.7578125 L 3.3964844 5.7363281 L 3.4082031 5.7207031 L 3.6015625 5.3613281 L 3.6113281 5.3417969 L 3.6230469 5.3242188 L 3.8515625 4.9863281 L 3.8710938 4.9628906 L 3.8886719 4.9394531 L 4.1796875 4.625 z M 12.160156 5.0097656 L 12.376953 5.3242188 L 12.388672 5.3417969 L 12.398438 5.359375 L 12.591797 5.71875 L 12.601562 5.7363281 L 12.611328 5.7558594 L 12.765625 6.1328125 L 12.773438 6.15625 L 12.777344 6.1757812 L 12.892578 6.5664062 L 12.898438 6.5898438 L 12.900391 6.6132812 L 12.90625 6.6503906 L 12.136719 6.7792969 L 12.087891 6.7910156 L 12.085938 6.7851562 L 12.083984 6.7851562 L 12.082031 6.7695312 L 11.982422 6.4160156 L 11.845703 6.0859375 L 11.671875 5.7636719 L 11.46875 5.4648438 L 12.160156 5.0097656 z M 3.0273438 7.0136719 L 3.4746094 7.0878906 L 3.8554688 7.1074219 L 3.8339844 7.5039062 L 3.8535156 7.875 L 3.9160156 8.2363281 L 4.015625 8.5859375 L 3.2148438 8.8105469 L 3.1074219 8.4414062 L 3.1035156 8.4199219 L 3.0996094 8.3964844 L 3.0273438 7.9902344 L 3.0234375 7.96875 L 3.0234375 7.9472656 L 3 7.5273438 L 3 7.5039062 L 3 7.4824219 L 3.0234375 7.0644531 L 3.0234375 7.0410156 L 3.0273438 7.0175781 L 3.0273438 7.0136719 z M 12.166016 7.4824219 L 13 7.5273438 L 12.976562 7.9453125 L 12.974609 7.96875 L 12.970703 7.9902344 L 12.900391 8.3964844 L 12.896484 8.4179688 L 12.892578 8.4414062 L 12.777344 8.8339844 L 12.773438 8.8535156 L 12.763672 8.875 L 12.611328 9.2441406 L 11.839844 8.9394531 L 11.982422 8.5917969 L 12.083984 8.2363281 L 12.146484 7.875 L 12.166016 7.4824219 z M 4.3164062 9.2285156 L 4.3320312 9.25 L 4.5253906 9.5371094 L 5.0371094 10.095703 L 5.3320312 10.3125 L 4.8320312 10.966797 L 4.5078125 10.726562 L 4.4765625 10.703125 L 4.4492188 10.673828 L 3.8886719 10.070312 L 3.8710938 10.044922 L 3.8515625 10.021484 L 3.6230469 9.6855469 L 3.6113281 9.6679688 L 3.6015625 9.6464844 L 3.59375 9.6347656 L 4.0917969 9.375 L 4.3164062 9.2285156 z M 11.492188 9.5195312 L 12.109375 10.070312 L 11.548828 10.673828 L 11.521484 10.703125 L 11.492188 10.726562 L 10.822266 11.220703 L 10.322266 10.566406 L 10.960938 10.095703 L 11.492188 9.5195312 z M 5.9726562 10.701172 L 6.3652344 10.892578 L 7.1503906 11.113281 L 7.4257812 11.150391 L 7.3125 11.962891 L 7.0175781 11.923828 L 6.9902344 11.917969 L 6.9628906 11.910156 L 6.1015625 11.669922 L 6.0664062 11.662109 L 6.03125 11.642578 L 5.6035156 11.439453 L 5.9726562 10.701172 z M 9.671875 10.882812 L 9.7167969 11.041016 L 10.009766 11.625 L 9.96875 11.644531 L 9.9335938 11.662109 L 9.8964844 11.669922 L 9.0351562 11.910156 L 9.0097656 11.917969 L 8.9824219 11.923828 L 8.5253906 11.984375 L 8.5058594 11.986328 L 8.4882812 11.988281 L 8.21875 12 L 8.1816406 11.181641 L 8.4277344 11.171875 L 8.8476562 11.113281 L 9.6386719 10.892578 L 9.640625 10.890625 L 9.671875 10.882812 z"/>
 <circle style="fill:currentColor" class="ColorScheme-Highlight" cx="3.5" cy="13.5" r="1.5"/>
</svg>

<svg xmlns="http://www.w3.org/2000/svg" width="16" height="16"><path d="M8 1a7 6.5 0 0 0-7 6.5 7 6.5 0 0 0 1.33 3.791A2.5 2.5 0 0 1 3.5 11 2.5 2.5 0 0 1 6 13.5a2.5 2.5 0 0 1-.01.215A7 6.5 0 0 0 8 14a7 6.5 0 0 0 7-6.5A7 6.5 0 0 0 8 1zm-.02 2h.04l.468.02.018.001.02.004.456.06.028.007.025.008.131.035-.225.789-.095-.028-.418-.056L8 3.82l-.43.02-.115.014-.113-.811.13-.018.022-.004.016-.001.47-.02zm-1.507.236l.226.785-.334.096-.71.344-.3.22-.5-.656.332-.244.03-.023.035-.016.78-.379.034-.015.036-.01.37-.102zm3.562.16l.713.346.033.016.031.023.68.5.03.024.027.029.017.018-.404.359-.17.226-.646-.476-.68-.33.37-.735zM4.18 4.625l.617.55-.272.296-.197.293-.174.322-.144.35-.774-.307.155-.371.005-.022.012-.015.194-.36.01-.02.011-.017.229-.338.02-.023.017-.024.29-.314zm7.98.385l.217.314.012.018.01.017.193.36.01.017.01.02.154.377.007.023.004.02.116.39.005.024.002.023.006.037-.77.13-.048.011-.002-.006h-.002l-.002-.015-.1-.354-.136-.33-.174-.322-.203-.3.691-.454zM3.027 7.014l.448.074.38.02-.021.396.02.371.062.361.1.35-.801.225-.108-.37-.003-.021-.004-.024-.073-.406-.004-.021v-.022L3 7.527v-.045l.023-.418v-.023l.004-.023v-.004zm9.139.468l.834.045-.023.418-.002.024-.004.021-.07.406-.005.022-.003.023-.116.393-.004.02-.01.021-.152.37-.771-.306.142-.347.102-.356.062-.361.02-.393zM4.316 9.23l.016.021.193.287.512.559.295.216-.5.655-.324-.24-.031-.024-.028-.03-.56-.603-.018-.025-.02-.024-.228-.335-.012-.018-.01-.022-.007-.011.498-.26.224-.146zm7.176.29l.617.551-.56.604-.028.03-.029.023-.67.494-.5-.655.639-.47.531-.576zm-5.52 1.182l.393.192.785.22.276.037-.114.813-.294-.04-.028-.005-.027-.008-.861-.24-.036-.008-.035-.02-.427-.203.369-.738zm3.7.182l.045.158.293.584-.041.02-.035.017-.038.008-.86.24-.026.008-.028.006-.457.06-.02.002-.017.002-.27.012-.036-.818.246-.01.42-.059.79-.22.003-.002.03-.008z" fill="currentColor" color="#dfdfdf"/><circle cx="3.5" cy="13.5" r="1.5" fill="currentColor" color="#5294e2"/></svg>
